!!!ONB: MCCC : IBB0002_14 : Extracted Monophonic Melody
!!!COM: Bartók, Béla
!!!OPR: 14 Bagatelles
!!!OMV: 14
!!!SCT: Sz.38 ; BB 50 ; Op.6
!!!ODT: 1908///
**kern
*staff1
=1
*clefG2
*k[f#c#]
*D:
*M3/8
=9
24dd
24ff#
24aa
4ccc#
=10
4.ccc#
=11
4.ccc#[
=12
4.ccc#]
=13
16eee
16ddd
16ccc#
16ddd
16bb
16ff#
=14
4.ff#
=15
4.ff#[
=16
4.ff#]
=17
*M3/4
8ff#
8gg#
8ff
8aa#
8gg
8dd#
=18
*M3/8
4.b
=19
4.b
=20
4.b
=21
4.b
=22
4b[
16b]
16cc#
=23
4b[
16b]
16cc#
=24
4b[
16b]
16cc#
=25
4b[
16b]
16cc#
=26
4b[
16b]
16cc#
=27
16.b
32cc#[
16cc#]
16dd#
8ee#
=28
16ff#
32r
32gg[
16gg]
16ff#[
8ff#]
=29
8.ee
16dd
16gg
16aa
=30
8.ee
16dd
16gg
16aa
=31
8.ee
16dd
16gg
16aa
=32
8.ee
16dd
16gg
16aa
=33
8.ee
16dd
16gg
16aa
=34
8.ee
16dd
16gg
16aa
=35
8.ee
16dd
16gg
16aa
=36
16bb
16aa
16gg
16ee
16cc
16g
=37
16g
16a
4a
=38
4.a
=39
4.a
=40
4.a
=41
4.a
=42
4.a[
=43
4.a]
=44
4.r
=45
8r
8c#
8c#
=46
8r
8e
8e
=47
8r
8a
8a
=48
8r
8d
8d
=49
8r
8f
8f
=50
8r
8a#
8a#
=51
8r
8cc#
8cc#
=52
8r
8a#
8a#
=53
8r
8dd
8dd
=54
8r
8ff#
8ff#
=55
8r
8aa
8aa
=56
8r
8ccc
8ccc
=57
8r
8a
8a
=58
8r
8cc
8cc
=59
8f#
8dd#
8a#
=60
8ee
8a
8ff
=61
8cc#
8gg
8cc
=62
8aa
8ee
8aa#
=63
8dd#
8bb
8dd
=64
8gg
8b
8gg#
=65
8g#
8dd
8g
=66
8dd#
24aa
24bb
24aa
8gg#
=67
8ccc
4gg
=68
4.gg
=69
4.gg[
=70
8gg]
24ff#
24gg#
24ff#
8ff
=71
8aa
4ee
=72
4.ee
=73
4.ee[
=74
8ee]
24dd#
24ff
24dd#
8dd
=75
8ff#
4cc#[
=76
8cc#]
24cc
24dd
24cc
8b
=77
8dd#
4a#[
=78
8a#]
24a
24b
24a
8g#
=79
8cc#
8f
8g
=80
8a
8a#
8cc
=81
8dd
8ee
8ff#
=82
8gg#
8aa#
8bb
=83
4ccc#
8eee[
=84
8eee]
4ddd#
=85
4ddd
8bb[
=86
8bb]
4ccc
=87
4.ccc
=88
4.ccc
=89
4.ccc
=90
4.ccc[
=91
4.ccc]
=92
8r
24ddd
24eee
24ddd
8ccc#
=93
8fff
4bb
=94
4.bb
=95
4.bb[
=96
8bb]
24aa#
24ccc
24aa#
8aa
=97
8ccc
4ff#
=98
4.ff#
=99
4.ff#[
=100
8ff#]
24ff
24gg
24ff
8ee
=101
8aa
4dd#[
=102
8dd#]
24cc##
24dd#
24dd
8cc#
=103
8ff
4b
=104
8r
24a#
24cc
24a#
8a
=105
8dd
8g#
8b
=106
8cc#
8dd#
8ee
=107
8ff#
8gg
8aa
=108
8aa#
8ccc
8ddd
=109
4ddd#
8ggg#[
=110
8ggg#]
4fff#
=111
4fff
8ddd[
=112
8ddd]
4ddd#
=113
4.ddd#[
=114
8ddd#]
8ccc#
8aa#
=115
8bb
8gg#
8aa#
=116
8ff#
8gg#
8dd#
=117
8r
24dd
24ee
24dd
8cc#
=118
8ff#
4b
=119
4.b[
=120
8b]
8cc#
8a
=121
8b
8g
8a
=122
8f
8g
8d
=123
8r
24c#
24d
24c#
8c
=124
8e
4A#
=125
8r
24A
24B
24A
8G#
=126
8c#
4F#[
=127
8F#]
8F#
8G
=128
8G#
8F##
8A#
=129
8B
8F#
8G
=130
8G#
8F##
8A#
=131
8B
8F#
8G
=132
8G#
8F##
8A#
=133
8B
8F#
8G
=134
8G#
8F##
8A#
=135
8B
8F#
8G
=136
8G#
8F##
8A#
=137
8B
8F#
8G
=138
8G#
8F##
8A#
=139
8B
8F#
8G
=140
8G#
8F##
8A#
=141
8B
8F#
8G
=142
8G#
8F##
8A#
=143
8B
8r
8r
=144
4.r
=145
4.r
=146
4.r
=147
4.r
=148
4.r
=149
4.r
=150
4.r
=151
4.r
=152
24B
24G
24E
8C
8r
=153
4.r
=154
24f#
24d
24B
8G
8r
=155
4.r
=156
24dd
24a#
24f#
8d#
8r
=157
4.r
=158
24ff#
24dd
24b
8g
8r
=159
8r
16g
16e
16c
16A
=160
8r
16cc
16g#
16f
16d
=161
8r
16cc#
16a
16f#
16d#
=162
8r
16ff
16cc#
16a#
16f#
=163
8r
16aa
16ff#
16dd#
16b
=164
8r
16ccc#
16gg#
16ff
16dd
=165
8r
16aa
16ff#
16dd#
16b
=166
8r
16ccc#
16gg#
16ff
16dd
=167
8r
16a
16f#
16d#
16B
=168
8r
16b
16g
16e
16c#
=169
8r
16cc#
16a
16f
16d#
=170
8r
16gg
16ee
16cc
16a#
=171
16a
16cc#
16ee
16gg#
24aa
24ccc#
24eee
=172
8ggg#
8ggg#
8ggg#
=173
8ggg#
8ggg#
8ggg#
=174
8ggg#
8ggg#
8ggg#
=175
8ggg#
8ggg#
8ggg#
=176
8ggg#
8aaa
8ggg
=177
8aaa#
8fff#
8bbb
=178
8fff
8cccc
8ddd#
=179
24ddd
24fff#
24aaa
32cccc#
32dddd
32cccc#
32dddd
32cccc#
32dddd
32cccc#
32dddd
=180
32cccc#
32dddd
32cccc#
32dddd
32cccc#
32dddd
32cccc#
32dddd
32cccc#
32dddd
32cccc#
32dddd
=181
32cccc#
32dddd
32cccc#
32dddd
32cccc#
32dddd
32cccc#
32dddd
32cccc#
32dddd
32cccc#
32dddd
=182
32cccc#
32dddd
32cccc#
32dddd
32cccc#
32dddd
32cccc#
32dddd
32cccc#
32dddd
32cccc#
32dddd
=183
24ddd
24fff#
24aaa
32cccc#
32dddd
32cccc#
32dddd
32cccc#
32dddd
32cccc#
32dddd
=184
32cccc#
32dddd
32cccc#
32dddd
32cccc#
32dddd
32cccc#
32dddd
32cccc#
32dddd
32cccc#
32dddd
=185
32cccc#
32dddd
32cccc#
32dddd
32cccc#
32dddd
32cccc#
32dddd
32cccc#
32dddd
32cccc#
32dddd
=186
32cccc#
32dddd
32cccc#
32dddd
32cccc#
32dddd
32cccc#
32dddd
32cccc#
32dddd
32cccc#
32dddd
=187
24ddd
24fff#
24aaa
32cccc#
32dddd
32cccc#
32dddd
32cccc#
32dddd
32cccc#
32dddd
=188
32cccc#
32dddd
32cccc#
32dddd
32cccc#
32dddd
32cccc#
32dddd
32cccc#
32dddd
32cccc#
32dddd
=189
24ddd
24fff#
24aaa
32cccc#
32dddd
32cccc#
32dddd
32cccc#
32dddd
32cccc#
32dddd
=190
32cccc#
32dddd
32cccc#
32dddd
32cccc#
32dddd
32cccc#
32dddd
32cccc#
32dddd
32cccc#
32dddd
=191
24ddd
24fff#
24aaa
32cccc#
32dddd
32cccc#
32dddd
32cccc#
32dddd
32cccc#
32dddd
=192
32cccc#
32dddd
32cccc#
32dddd
32cccc#
32dddd
32cccc#
32dddd
32cccc#
32dddd
32cccc#
32dddd
=193
24ddd
24fff#
24aaa
32cccc#
32dddd
32cccc#
32dddd
32cccc#
32dddd
32cccc#
32dddd
=194
32cccc#
32dddd
32cccc#
32dddd
32cccc#
32dddd
32cccc#
32dddd
32cccc#
32dddd
32cccc#
32dddd
=195
24ddd
24fff#
24aaa
32cccc#
32dddd
32cccc#
32dddd
32cccc#
32dddd
32cccc#
32dddd
=196
4.r
=197
4.r
=198
24ddd
24fff#
24aaa
8cccc#
8r
=199
4.r
=200
4.r
=201
24dd
24ff#
24aa
8ccc#
8r
=202
4.r
=203
4.r
=204
24d
24f#
24a
8cc#
8r
=205
4.r
=206
4.r
=207
4.r
=208
4.r
=209
4.r
=210
8r
32d
32f#
32a
32cc#
32dd
32ff#
32aa
32ccc#
=211
32ddd
32fff#
48aaa
24cccc#[
8cccc#]
8cccc#
=212
8cccc#
8cccc#
8cccc#
=213
8cccc#
8cccc#
8cccc#
=214
8cccc#
4cccc#
=215
8cccc#
4bb
=216
8bb
4f[
=217
8f]
8r
8r
=218
4.r
=219
4.r
==
*-
